Adwaita++-Light/panel/24/system-devices-panel.svg

<svg xmlns="http://www.w3.org/2000/svg" width="24" height="24" version="1.1">
 <defs>
  <style id="current-color-scheme" type="text/css">
   .ColorScheme-Text { color:#444444; } .ColorScheme-Highlight { color:#4285f4; }
  </style>
 </defs>
 <path style="fill:currentColor" class="ColorScheme-Text" d="M 12 5 C 11.446 5 11 5.446 11 6 L 11 11.003906 C 11 11.557906 11.446 12.003906 12 12.003906 C 12.554 12.003906 13 11.557906 13 11.003906 L 13 6 C 13 5.446 12.554 5 12 5 z M 15.037109 6.9882812 A 1.0001 1.0001 0 0 0 14.84375 7 A 1.0001 1.0001 0 0 0 14.40625 8.8125 C 16.18475 10.1429 16.54905 12.62775 15.21875 14.40625 C 13.88835 16.18475 11.37225 16.51785 9.59375 15.1875 C 7.81525 13.85715 7.48215 11.37225 8.8125 9.59375 C 9.02906 9.30424 9.2764 9.06479 9.5625 8.84375 A 1.0032039 1.0032039 0 1 0 8.34375 7.25 C 7.9146 7.58156 7.51229 7.97204 7.1875 8.40625 C 5.2097 11.05025 5.76225 14.8348 8.40625 16.8125 C 11.05025 18.7903 14.8348 18.23775 16.8125 15.59375 C 18.7903 12.94975 18.23775 9.1652 15.59375 7.1875 A 1.0001 1.0001 0 0 0 15.037109 6.9882812 z"/>
</svg>

<svg height="24" width="24" xmlns="http://www.w3.org/2000/svg">
  <path d="m12 5c-.554 0-1 .446-1 1v5.003906c0 .554.446 1 1 1s1-.446 1-1v-5.003906c0-.554-.446-1-1-1zm3.037109 1.9882812a1.0001 1.0001 0 0 0 -.193359.0117188 1.0001 1.0001 0 0 0 -.4375 1.8125c1.7785 1.3304 2.1428 3.81525.8125 5.59375-1.3304 1.7785-3.8465 2.1116-5.625.78125s-2.1116-3.81525-.78125-5.59375c.21656-.28951.4639-.52896.75-.75a1.0032039 1.0032039 0 1 0 -1.21875-1.59375c-.42915.33156-.83146.72204-1.15625 1.15625-1.9778 2.644-1.42525 6.42855 1.21875 8.40625 2.644 1.9778 6.42855 1.42525 8.40625-1.21875 1.9778-2.644 1.42525-6.42855-1.21875-8.40625a1.0001 1.0001 0 0 0 -.556641-.1992188z" fill="#444"/>
</svg>
